assets/cards-tab/Asset/MasterCard-Horizontal.svg

<svg width="20" height="22" viewBox="0 0 20 22" fill="none" xmlns="http://www.w3.org/2000/svg">
<path d="M12.6981 6.2832H7.2858V15.7162H12.6981V6.2832Z" fill="#FF5A00"/>
<path d="M7.64612 10.999C7.64612 9.08252 8.57486 7.38155 10 6.28252C8.95116 5.48252 7.6281 4.99902 6.18495 4.99902C2.76621 4.99902 0 7.68252 0 10.999C0 14.3155 2.76621 16.999 6.18495 16.999C7.6281 16.999 8.95116 16.5155 10 15.7155C8.57286 14.632 7.64612 12.9155 7.64612 10.999Z" fill="#EB001B"/>
<path d="M20.0001 10.999C20.0001 14.3155 17.2339 16.999 13.8152 16.999C12.372 16.999 11.049 16.5155 10.0001 15.7155C11.4433 14.6146 12.354 12.9155 12.354 10.999C12.354 9.08252 11.4253 7.38155 10.0001 6.28252C11.047 5.48252 12.37 4.99902 13.8132 4.99902C17.2339 4.99902 20.0001 7.69999 20.0001 10.999Z" fill="#F79E1B"/>
</svg>

<svg xmlns="http://www.w3.org/2000/svg" width="20" height="22" fill="none" viewBox="0 0 20 22"><path fill="#ff5a00" d="M12.698 6.283H7.286v9.433h5.412z"/><path fill="#eb001b" d="M7.646 10.999c0-1.916.929-3.617 2.354-4.716a6.27 6.27 0 0 0-3.815-1.284c-3.419 0-6.185 2.684-6.185 6s2.766 6 6.185 6A6.27 6.27 0 0 0 10 15.716a5.93 5.93 0 0 1-2.354-4.717"/><path fill="#f79e1b" d="M20 10.999c0 3.316-2.766 6-6.185 6A6.27 6.27 0 0 1 10 15.716c1.443-1.101 2.354-2.8 2.354-4.717S11.425 7.382 10 6.283a6.26 6.26 0 0 1 3.813-1.284c3.42 0 6.187 2.701 6.187 6"/></svg>
